src/main/resources/img/expui/ExecutionResultSetOrphan_dark.svg

<svg width="16" height="16" version="1.1" viewBox="0 0 16 16"  xmlns="http://www.w3.org/2000/svg"><rect x=".5" y="1.5" width="15" height="3" fill="#6f737a" fill-opacity=".4" stroke-width=".96609"/><path d="m1.5 1c-0.82235-1e-8 -1.5 0.67765-1.5 1.5v10c-3.4215e-8 0.82235 0.67765 1.5 1.5 1.5h7v-1h-2.5v-2h2.5v-0.75c0-0.084011 0.0030041-0.16719 0.0078125-0.25h-2.5078v-2h3.1445c0.4428-0.70798 1.0885-1.2759 1.8555-1.623v-1.377h4v1.6602c0.37887 0.24497 0.71543 0.54989 1 0.90234v-5.0625c0-0.82235-0.67765-1.5-1.5-1.5h-13zm0 1h3.5v2h-4v-1.5c1e-7 -0.28565 0.21435-0.5 0.5-0.5zm4.5 0h4v2h-4v-2zm5 0h3.5c0.28565 0 0.5 0.21435 0.5 0.5v1.5h-4v-2zm-10 3h4v2h-4v-2zm5 0h4v2h-4v-2zm-4.9395 3h3.9395v2h-3.9395v-2zm-0.060547 3h4v2h-3.5c-0.28565 0-0.5-0.21435-0.5-0.5v-1.5z" fill="#6f737a"/><g transform="translate(4.6966 3.9965)" fill="#db5c5c"><path d="m7.5924 8.521c0.08067-0.18333 0.17967-0.341 0.297-0.473 0.11734-0.132 0.275-0.28967 0.473-0.473 0.19067-0.17233 0.341-0.32083 0.451-0.4455 0.11367-0.12467 0.209-0.2695 0.286-0.4345 0.077-0.16867 0.1155-0.35567 0.1155-0.561 0-0.231-0.0495-0.43633-0.1485-0.616-0.09533-0.17967-0.231-0.319-0.407-0.418s-0.37766-0.1485-0.605-0.1485c-0.253 0-0.47666 0.055-0.671 0.165-0.19433 0.11-0.34466 0.264-0.451 0.462-0.02607 0.04855-0.04894 0.09885-0.06862 0.15093-0.10577 0.27988-0.33343 0.53107-0.63263 0.53107s-0.54963-0.24523-0.48953-0.53833c0.04822-0.2351 0.12981-0.45166 0.24478-0.64967 0.198-0.341 0.47667-0.605 0.836-0.792 0.35934-0.187 0.77367-0.2805 1.243-0.2805 0.44734 0 0.8415 0.08617 1.1825 0.2585s0.605 0.41617 0.79205 0.7315c0.187 0.31167 0.2786 0.671 0.275 1.078 0 0.31533-0.0495 0.594-0.1485 0.836-0.099 0.23833-0.22005 0.43817-0.36305 0.5995s-0.32816 0.34283-0.5555 0.5445c-0.16866 0.15033-0.30066 0.27683-0.396 0.3795-0.09533 0.10267-0.176 0.21817-0.242 0.3465-0.01798 0.03596-0.03252 0.07236-0.04426 0.10912-0.08785 0.27487-0.28317 0.51788-0.57174 0.51788s-0.54014-0.23575-0.50055-0.52159c0.01686-0.12177 0.04661-0.24161 0.09905-0.35841z"/><circle cx="8" cy="10.75" r=".75"/></g></svg>

<svg width="16" height="16" xmlns="http://www.w3.org/2000/svg"><path fill="#6f737a" fill-opacity=".4" d="M.5 1.5h15v3H.5z"/><path d="M1.5 1C.678 1 0 1.678 0 2.5v10c0 .822.678 1.5 1.5 1.5h7v-1H6v-2h2.5v-.75c0-.084.003-.167.008-.25H6V8h3.145A4.267 4.267 0 0 1 11 6.377V5h4v1.66c.379.245.715.55 1 .903V2.5c0-.822-.678-1.5-1.5-1.5h-13zm0 1H5v2H1V2.5c0-.286.214-.5.5-.5zM6 2h4v2H6V2zm5 0h3.5c.286 0 .5.214.5.5V4h-4V2zM1 5h4v2H1V5zm5 0h4v2H6V5zM1.06 8H5v2H1.06V8zM1 11h4v2H1.5a.488.488 0 0 1-.5-.5V11z" fill="#6f737a"/><g transform="translate(4.697 3.997)" fill="#db5c5c"><path d="M7.592 8.521c.081-.183.18-.341.297-.473.118-.132.275-.29.473-.473.191-.172.341-.32.451-.446.114-.124.21-.269.286-.434.077-.169.116-.356.116-.561 0-.231-.05-.436-.149-.616-.095-.18-.23-.319-.407-.418s-.377-.148-.605-.148c-.253 0-.476.055-.67.165a1.14 1.14 0 0 0-.52.612c-.106.28-.334.531-.633.531s-.55-.245-.49-.538a2.14 2.14 0 0 1 .245-.65c.198-.34.477-.605.836-.792.36-.187.774-.28 1.243-.28.448 0 .842.086 1.183.259s.605.416.792.731c.187.312.279.671.275 1.078 0 .315-.05.594-.149.836-.099.238-.22.438-.363.6s-.328.342-.555.544c-.169.15-.3.277-.396.38a1.544 1.544 0 0 0-.242.346.76.76 0 0 0-.044.11c-.088.274-.284.517-.572.517s-.54-.236-.5-.522a1.3 1.3 0 0 1 .098-.358z"/><circle cx="8" cy="10.75" r=".75"/></g></svg>
